X: 1
T: Bonnie Woodside
M: 6/8
L: 1/8
R: jig
K: Dmaj
|:DFA GBd|FAd fed|afd FAd|cee e2f|
DFA GBd|FAd fed|afd FAd|1 cec d3:|2 cec d2||
|: f/g/|afd bge|afd FAd|GBd FAd|cee efg|
afd bge|afd FAd|GBd FAd|cec d2:|
|: f/g/|afd bge|afd FAd|GBd FAd|cee e2f|
DFA GBd|FAd fed|afd FAd|cec d2:|
